X:2
T:The Priest
C:Traditional
N:Play 4 times
N:The Cashel Set, figure 5, tune 2 of 2
Z:Gordon Turnbull, Edinburgh
Z:gturnbull@theflow.org.uk
Z:http://www.theflow.org.uk
D:The Bothy Band, 'Out of the Wind, Into the Sun'
R:Slide
M:12/8
L:1/8
K:G
g | dBB d2 B d2 B B2 g | dBB d2 B c2 A A2 g |\
dBB d2 B BAB g2 d | BAB g3 BGG G2 :|
f | g2 g fgf g2e e2 f | g2 g aga b2 e e2 f  |\
g2 g fef g2e e2 d | BAB g3 BGG G2 :|
